icons/1_Primary/ExpressVPN.svg

<svg width="1024" height="1024" fill="none" xmlns="http://www.w3.org/2000/svg"><g clip-path="url(#a)"><path d="M512 1024c282.77 0 512-229.23 512-512S794.77 0 512 0 0 229.23 0 512s229.23 512 512 512Z" fill="#FF837D"/><path d="M389.1 717.9c-57.5 0-94.2-32.3-94.2-77.2 0-14.8 4.4-32.8 21.4-69.5H256l55.3-118.3h385c8.8 0 14.8-6.6 14.8-14.2 0-7.7-6-14.2-14.8-14.2H384.7l27.4-58.6c17-36.1 53.7-59.7 93.6-59.7h130.9c75.6 0 131.4 52 131.4 119.9 0 80.5-73.9 145.1-159.3 145.1h-253c-7.7 15.9 1.1 28.5 19.7 28.5h201.5c33.4 0 59.1 23.5 59.1 53.7 0 34.5-33.4 64.6-71.2 64.6H389.1v-.1Z" fill="#fff"/></g><defs><clipPath id="a"><path fill="#fff" d="M0 0h1024v1024H0z"/></clipPath></defs></svg>

<svg width="1024" height="1024" viewBox="0 0 1024 1024" fill="none" xmlns="http://www.w3.org/2000/svg">
<g clip-path="url(#clip0_2_2136)">
<path d="M512 1024C794.77 1024 1024 794.77 1024 512C1024 229.23 794.77 0 512 0C229.23 0 0 229.23 0 512C0 794.77 229.23 1024 512 1024Z" fill="#FF837D"/>
<path d="M389.1 717.9C331.6 717.9 294.9 685.6 294.9 640.7C294.9 625.9 299.3 607.9 316.3 571.2H256L311.3 452.9H696.3C705.1 452.9 711.1 446.3 711.1 438.7C711.1 431 705.1 424.5 696.3 424.5H384.7L412.1 365.9C429.1 329.8 465.8 306.2 505.7 306.2H636.6C712.2 306.2 768 358.2 768 426.1C768 506.6 694.1 571.2 608.7 571.2H355.7C348 587.1 356.8 599.7 375.4 599.7H576.9C610.3 599.7 636 623.2 636 653.4C636 687.9 602.6 718 564.8 718H389.1V717.9Z" fill="white"/>
</g>
<defs>
<clipPath id="clip0_2_2136">
<rect width="1024" height="1024" fill="white"/>
</clipPath>
</defs>
</svg>
